icons/lines/glass.svg

<svg xmlns="http://www.w3.org/2000/svg" width="24" height="24" viewBox="0 0 24 24" fill="none" stroke="currentColor" stroke-width="2" stroke-linecap="round" stroke-linejoin="round" >
  <path d="M8.15979 22C3.97979 22 3.13979 19.47 4.49979 16.39L8.74979 6.74H8.44979C7.79979 6.74 7.19979 6.48 6.76979 6.05C6.32979 5.62 6.06979 5.02 6.06979 4.37C6.06979 3.07 7.12979 2 8.43979 2H15.5498C16.2098 2 16.7998 2.27 17.2298 2.7C17.7898 3.26 18.0698 4.08 17.8598 4.95C17.5898 6.03 16.5498 6.74 15.4398 6.74H15.2798L19.4998 16.4C20.8498 19.48 19.9698 22 15.8298 22H8.15979Z"/>
  <path d="M5.93994 13.12C5.93994 13.12 8.99994 13 11.9999 14C14.9999 15 17.8299 13.11 17.8299 13.11"/>
  </svg>

<svg xmlns="http://www.w3.org/2000/svg" width="24" height="24" viewBox="0 0 24 24" fill="none" stroke="currentColor" stroke-width="2" stroke-linecap="round" stroke-linejoin="round">
  <path d="M5.94 13.12S9 13 12 14s5.83-.89 5.83-.89" />
  <path d="M8.16 22c-4.18 0-5.02-2.53-3.66-5.61l4.25-9.65h-.3A1 1 0 1 1 8.44 2h7.11a2.37 2.37 0 0 1 2.31 2.95c-.27 1.08-1.31 1.79-2.42 1.79h-.16l4.22 9.66c1.35 3.08.47 5.6-3.67 5.6z" />
</svg>
